X: 530
T: Abbey, The
R: reel
M: 4/4
K: Adorian
A3 B A2 GE|~A3 G B (3ded B|A2 AB AGED|DEGA B (3ded B|
~A3 B A2 GE|A2 AG BddB|A3 B AGED|DEGA Bddg||
eg~g2 a2 ba|gabg ageg|degb a2 ga|bgaf gedg|
eg~g2 ag~g2|agbg ageg|degb a2 ga|(3bag af gedB||

